X:11
T:13b. High and Dry
C:Larry Mallette
R:double jig
N:Wrote this tune on the whistle while waiting in my car in a Houston parking lot, high above the flooded streets, during one of our tropical downpours that seem to flood our streets yearly.
M:6/8
Q:320
K:ADor
"Double Jig"
A|AcA AFA|EFG A2A|~F3~E3|GEA G2c|
~c3cAG|Acd e2e|edc AGE|1DEG A2:|2AGE A2||
d|edc~A3|GED~G3|AGA cAc|gede2d|
edc~A3|GED~G3|1AGA ABc|BAGA2:|2ABA ged|cAGA2|]





